src/icons/eva/speedometer.svg

<svg xmlns="http://www.w3.org/2000/svg" viewBox="0 0 24 24"><defs><style>.cls-2{fill:#231f20}</style></defs><g id="Layer_2" data-name="Layer 2"><g id="grid"><g id="grid-2" data-name="grid"><path class="cls-2" d="M9 3H5a2 2 0 0 0-2 2v4a2 2 0 0 0 2 2h4a2 2 0 0 0 2-2V5a2 2 0 0 0-2-2zM5 9V5h4v4zM19 3h-4a2 2 0 0 0-2 2v4a2 2 0 0 0 2 2h4a2 2 0 0 0 2-2V5a2 2 0 0 0-2-2zm-4 6V5h4v4zM9 13H5a2 2 0 0 0-2 2v4a2 2 0 0 0 2 2h4a2 2 0 0 0 2-2v-4a2 2 0 0 0-2-2zm-4 6v-4h4v4zM19 13h-4a2 2 0 0 0-2 2v4a2 2 0 0 0 2 2h4a2 2 0 0 0 2-2v-4a2 2 0 0 0-2-2zm-4 6v-4h4v4z"/></g></g></g></svg>

<svg xmlns="http://www.w3.org/2000/svg" viewBox="0 0 24 24"><defs><style>.cls-1{fill:#fff;opacity:0;}.cls-2{fill:#231f20;}</style></defs><title>grid</title><g id="Layer_2" data-name="Layer 2"><g id="grid"><g id="grid-2" data-name="grid"><rect class="cls-1" width="24" height="24"/><path class="cls-2" d="M9,3H5A2,2,0,0,0,3,5V9a2,2,0,0,0,2,2H9a2,2,0,0,0,2-2V5A2,2,0,0,0,9,3ZM5,9V5H9V9Z"/><path class="cls-2" d="M19,3H15a2,2,0,0,0-2,2V9a2,2,0,0,0,2,2h4a2,2,0,0,0,2-2V5A2,2,0,0,0,19,3ZM15,9V5h4V9Z"/><path class="cls-2" d="M9,13H5a2,2,0,0,0-2,2v4a2,2,0,0,0,2,2H9a2,2,0,0,0,2-2V15A2,2,0,0,0,9,13ZM5,19V15H9v4Z"/><path class="cls-2" d="M19,13H15a2,2,0,0,0-2,2v4a2,2,0,0,0,2,2h4a2,2,0,0,0,2-2V15A2,2,0,0,0,19,13Zm-4,6V15h4v4Z"/></g></g></g></svg>
